X: 4194
M: 6/8
L: 1/8
K: D
|: g |\
fed faf | gbg fag | fed faf | gfg e2g |
fed faf | gbg faf | dcd ege | fdd d2 :|\
|: g |\
fdf ece | dcB AFA | DFA def | gfg e2g |\
fdf ece | dcB AFA | DFA d2e | fdd d2 :|


